!!!COM: Scriabin, Alexander
!!!OTL@@FR: Étude
!!!OTL@@EN: Etude
!!!OPR@@FR: 12 Études
!!!OPR@@EN: 12 Etudes
!!!OPS: 8
!!!ONM: 2
!!!ODT: 1894
!!!AGN: Etude
!!!OMD: A capriccio, con forza [quarter] = 92
**kern	**kern	**dynam
*part1	*part1	*
*staff2	*staff1	*staff1/2
*Ipiano	*Ipiano	*
*clefF4	*clefG2	*
*k[f#c#g#]	*k[f#c#g#]	*
*f#:	*f#:	*
*met(c)	*met(c)	*
*M4/4	*M4/4	*
*MM92	*MM92	*
=1-	=1-	=1-
*Xtuplet	*Xtuplet	*
12FF#L	20f#~LL	<
.	20g#~	.
12C#	.	.
.	20cc#~	.
.	20f#	.
12c#J	.	.
.	20bJJ	.
12B#L	24a'LL	.
.	24e'	.
12F#	24d#'J	.
.	24g#'L	.
12C#J	24dn'	.
.	24f#'JJ	.
16FF#LL	2c#^	[ sf
16C#	.	.
16.A	.	.
32e#^JJk	.	.
16f#^LL	.	.
16A	.	.
16C#	.	.
16FF#JJ	.	.
=2	=2	=2
12FF#L	20b~LL	.
.	20cc#~	.
12D	.	.
.	20ff#~	.
.	20b	.
12BJ	.	.
.	20eeJJ	.
16f#LL	24ddLL	<
.	24a'	.
16e#	.	.
.	24g#'J	.
16B	24cc#'L	.
.	24gn'	.
16DJJ	.	.
.	24b'JJ	.
16FF#LL	2f#	[ sf
16D	.	.
16.B	.	.
32f#^JJk	.	.
16g#^LL	.	.
16B	.	.
16D	.	.
16FF#JJ	.	.
!!LO:LB:g=original
=3	=3	=3
12FF#L	(20cc#LL	.
.	20dd	.
12C#	.	.
.	20gg#	.
.	20dd	.
12BJ	.	.
.	20ff#JJ	.
16g#LL	20ee#LL	.
.	20g#	.
16e#	.	.
.	20a	.
16B	.	.
.	20cc#	.
16C#JJ	.	.
.	20bJJ	.
12FF#L	20aLL	.
.	20b	.
12C#	.	.
.	20een	.
.	20a	.
12AJ	.	.
.	20ddJJ	.
12enL	20cc#LL	.
.	20f#	.
12c#	.	.
.	20g#	.
.	20b	.
12F#J	.	.
.	20aJJ	.
=4	=4	=4
12FF#L	20gnLL	.
.	20a	.
12D	.	.
.	20dd	.
.	20g	.
12BJ	.	.
.	20cc#JJ	.
12dL	20bLL	.
.	20d	.
12B	.	.
.	20e	.
.	20a	.
12DJ	.	.
.	20gJJ	.
16FF#LL	4f#	.
16C#	.	.
16.B	.	.
32f#^JJk	.	.
16g#^LL	4e#)	.
16B	.	.
16C#	.	.
16FF#JJ	.	.
!!LO:LB:g=original
=5	=5	=5
12FF#L	20f#~LL	.
.	20g~	.
12C#	.	.
.	20cc~	.
.	20f#	.
12c#J	.	.
.	20bJJ	<
12B#L	24a'LL	.
.	24e'	.
12F#	24d#'J	.
.	24g'L	.
12C#J	24dn'	.
.	24f#'JJ	.
16FF#LL	2c	[ sf
16C#	.	.
16.A	.	.
32e#^JJk	.	.
16f#^LL	.	.
16A	.	.
16C#	.	.
16FF#JJ	.	.
=6	=6	=6
12FF#L	20b~LL	.
.	20cc~	.
12D	.	.
.	20ff#~	.
.	20b	.
12BJ	.	.
.	20eeJJ	.
16f#LL	24dd'LL	<
.	24a'	.
16e#	.	.
.	24g'J	.
16B	24cc'L	.
.	24gn'	.
16DJJ	.	.
.	24b'JJ	.
16FF#LL	2f#	[ sf
16D	.	.
16.B	.	.
32f#^JJk	.	.
16g#^LL	.	.
16B	.	.
16D	.	.
16FF#JJ	.	.
!!LO:LB:g=original
=7	=7	=7
12FF#L	(20f#LL	p
.	20g#	.
12D#	.	.
.	20cc#	.
.	20f#	.
12AJ	.	.
.	20bJJ	.
12c#L	20aLL	.
.	20c#	.
12A	.	.
.	20d#	.
.	20g#	.
12D#J	.	.
.	20f#JJ	.
12GG#L	20eLL	.
.	20f#	.
12E	.	.
.	20b	.
.	20e	.
12c#J	.	.
.	20aJJ	.
12BL	20g#LL	<
.	20c#	.
12A	.	.
.	20d#	.
.	20f#	.
12G#J	.	.
.	20eJJ	.
=8	=8	=8
12GG#L	20dnLL	.
.	20e	.
12F#	.	.
.	20a	.
.	20d	.
12GG#J	.	.
.	20g#JJ	.
12B#L	20f#LL	.
!!LO:TX:a:B:t=rit.
.	20A~	.
12F#	.	.
.	20B#~	.
.	20e~	.
12GG#J	.	.
.	20d~JJ	.
20CC#LL<	2c#^)	.
20GG#	.	.
20E	.	.
20c#	.	.
20G#JJ	.	.
16g#LL	.	>
16c#	.	.
16E	.	.
16BBBJJ	.	.
!!LO:LB:g=original
=9	=9	=9
16AAALL	20c#LL	p
.	20a	.
16E	.	.
.	20ee	.
16c#	.	.
.	20a	.
16GnJJ	.	.
.	20ddJJ	.
16gnLL	24cc#LL	.
.	24e~	.
16c#	.	.
.	24f#~J	.
16E	24a~L	.
.	24gn~	.
[<16AAJJ	.	.
.	24f#~JJ	.
16AAA 16AALL]	2F# 2d# 2b	.
(>16D#~	.	.
16B~	.	.
16F#~JJ	.	.
16f#~LL	.	.
16B	.	.
16D#	.	.
16AAA 16AAJJ)	.	.
=10	=10	=10
*^	*	*
12GGnL	4GGGn 4GGn	20BLL	<
.	.	20e	.
12BB	.	.	.
.	.	(>20ccn^>	.
.	.	20e	.
12BJ	.	.	.
.	.	20bJJ)	.
12FF#L	4FFF# 4FF#	20ALL	.
.	.	20d#	.
12BB	.	.	.
.	.	(>20a#^>	.
.	.	20d#	.
12BJ	.	.	.
.	.	20anJJ)	.
12EEL	4EEE 4EE	20GnLL	.
.	.	20B	.
12BB	.	.	.
.	.	(>20gn^>	.
.	.	20B	.
12BJ	.	.	.
.	.	20f#JJ)	.
12DDL	4DDD 4DD	20GLL	.<
.	.	20B	.
12BB	.	.	.
.	.	(>20d#X^>	.
.	.	20B	.
12BJ	.	.	.
.	.	20eJJ)	.
*v	*v	*	*
!!LO:LB:g=original
=11	=11	=11
16CCCn 16CCnLL	20eLL	f
.	20ccn	.
16Gn	.	.
.	20ggn	.
16e	.	.
.	20cc	.
16B-JJ	.	.
.	20ffnJJ	.
16b-LL	24eeLL	.
.	24gn	.
16e	.	.
.	24aJ	.
16G	24ccL	.
.	24b-	.
[<16CnJJ	.	.
.	24aJJ	.
16CC 16CLL]	2A 2f#X 2dd	.
16F#X	.	.
16d	.	.
16AJJ	.	.
16aLL	.	.
16d	.	.
16F#	.	.
16CC 16CJJ	.	.
=12	=12	=12
*^	*	*
12BB-L	4BBB- 4BB-	20dLL	.
.	.	20gn	.
12D	.	.	.
.	.	(>20ee-^>	.
.	.	20g	.
12dJ	.	.	.
.	.	20ddJJ)	.
12AAL	4AAA 4AA	20cnLL	<
.	.	20f#X	.
12D	.	.	.
.	.	(>20cc#X^>	.
.	.	20f#	.
12dJ	.	.	.
.	.	20ccnJJ)	.
12GGnL	4GGGn 4GGn	20B-LL	.
.	.	20d	.
12D	.	.	.
.	.	(>20b-^>	.
.	.	20d	.
12dJ	.	.	.
.	.	20aJJ)	.
12GGL	4GGG 4GG	20B-LL	.
.	.	20e	.
12C#X	.	.	.
.	.	(>20f#^>	.
.	.	20e	.
12c#XJ	.	.	.
.	.	20gJJ)	.
*v	*v	*	*
!!LO:LB:g=original
=13	=13	=13
12DDD 12DDL	20f#LL>	ff
.	20dd	.
12AA	.	.
.	20aa	.
.	20dd	.
12F#J	.	.
.	20gg#XJJ	.
12cnL	20aLL>	.
.	20dd	.
12F#	.	.
.	20ggn	.
.	20dd	.
12AAJ	.	.
.	20ff#JJ	.
12DDD 12DDL	20b-LL>	.
.	20dd	.
12GGn	.	.
.	20ff#	.
.	20dd	.
12DJ	.	.
.	20ffnJJ	.
12B-L	20eLL	.
.	20gn	.
12C#X	.	.
.	20ee	.
.	20g	.
12GGJ	.	.
.	20cc#JJ	.
=14	=14	=14
16DDD 16DDLL	20cnLL	.
.	20f#	.
16AA	.	.
.	20ee-	.
16D	.	.
.	20f#	.
16AJJ	.	.
.	20ddJJ	.
12e-L	20cLL	.
.	20f#	.
12F#	.	.
.	20cc#X	.
.	20f#	.
12AAJ	.	.
.	20ccnJJ	.
12DDD 12DDL	20B-LL	.
.	20gn	.
12BB-	.	.
.	20cc	.
.	20g	.
12E-J	.	.
.	20b-JJ	.
12c#XL	20GnLL	.
.	20e-	.
12E-	.	.
.	20a	.
.	20e-	.
12BB-J	.	.
.	20gJJ	.
!!LO:LB:g=original
=15	=15	=15
12DDD 12DDL	20F#LL	.
.	.	>
.	20d	.
12AA	.	.
.	20a	.
.	20d	.
12F#J	.	.
.	20g#XJJ	.
12cnL	20ALL	.
.	20d	.
12F#	.	.
.	20gn	.
.	20d	.
12AAJ	.	.
.	20f#JJ	.
12DDD 12DDL	20B-LL	.
.	20d	.
12GGn	.	.
.	20f#	.
.	20d	.
12DJ	.	.
.	20fnJJ	.
*	*clefF4	*clefF4
12B-L	20ELL	p
.	20Gn	.
12C#	.	.
.	20e	.
.	20G	.
12GGJ	.	.
.	20c#JJ	.
!!LO:LB:g=original
=16	=16	=16
!	!	!LO:HP:t=%s molto
12DDD 12DDL	20F#LL	<
.	20B#	.
12AA	.	.
.	20c#	.
.	20B#	.
12DJ	.	.
.	20dJJ	.
12AL	20F#LL	.
.	20B#	.
12D	.	.
.	20e#	.
.	20B#	.
12AAJ	.	.
.	20f#JJ	.
*	*clefG2	*clefG2
16DDLL	20B#XLL	.
.	20f#	.
16AA	.	.
.	20g#	.
16D	.	.
.	20f#	.
16AJJ	.	.
.	20aJJ	.
!!LO:TX:a:B:t=rit.
12dL	20B#LL	.
.	20f#	.
12A	.	.
.	20bn	.
.	20f#	.
12DJ	.	.
.	20b#JJ	.
!!LO:LB:g=original
=17	=17	=17
!	!LO:TX:a:i:t=non legato	!
12CCC# 12CC#L	20f#~LL	ff
.	20g#~	.
12C#	.	.
.	20cc#~	.
.	20f#	.
12c#J	.	.
.	20bJJ	.
12B#L	24a'LL	<
.	24e'	.
12F#	24d#'J	.
.	24g#'L	.
12C#J	24dn'	.
.	24f#'JJ	.
16CC# 16C#LL	2c#	[
16C#	.	.
16.A	.	.
32e#^JJk	.	.
16f#^LL	.	.
16A	.	.
16C#	.	.
16CC# 16C#JJ	.	.
=18	=18	=18
12CC# 12C#L	20b~LL	.
.	20cc#~	.
12D	.	.
.	20ff#~	.
.	20b	.
12BJ	.	.
.	20eeJJ	.
16f#LL	24dd'LL	<
.	24a'	.
16e#	.	.
.	24g#'J	.
16B	24cc#'L	.
.	24gn'	.
16DJJ	.	.
.	24b'JJ	[
16CC# 16C#LL	2f#	.
16D	.	.
16.B	.	.
32f#^JJk	.	.
16g#^LL	.	.
16B	.	.
16D	.	.
16CC# 16C#JJ	.	.
!!LO:LB:g=original
=19	=19	=19
16CC# 16C#LL	20eeLL	.
.	20ff#	.
16Gn	.	.
.	20bb	.
16e	.	.
.	20ee	.
16BJJ	.	.
.	20aaJJ	.
12bL	20ggnLL	.
.	20b	.
12e	.	.
.	20cc#	.
.	20ff#	.
12GJ	.	.
.	20eeJJ	.
16DD 16DLL	20bLL	.
.	20cc#	.
16G#~	.	.
.	20ff#	.
16f#~	.	.
.	20b	.
16B~JJ	.	.
.	20eeJJ	.
12b~L	20ddLL	.
.	20f#	.
12f#	.	.
.	20g#X	.
.	20cc#	.
12G#J	.	.
.	20bJJ	.
=20	=20	=20
12CC# 12C#L	20BLL	.
.	20gn	.
12B	.	.
.	20dd	.
.	20g	.
12C#J	.	.
!!LO:TX:a:B:t=rit.
.	20cc#JJ	.
12e#L>	20bLL	.
.	20d~	.
12B	.	.
.	20e#~	.
.	20a~	.
12CC# 12C#J	.	.
.	20g#~JJ	.
!!LO:TX:a:B:t=a tempo
16FFF# 16FF#LL	2A 2f#	.
16C#	.	.
16A	.	.
16f#JJ	.	.
16f#LL	.	.
16A	.	>
16C#	.	.
16FF#JJ	.	.
!!LO:LB:g=original
=21	=21	=21
12FFF# 12FF#L	20a#~LL	pp
.	20cc#~	.
12E	.	.
.	20aa#~	.
.	20cc#~	.
12A#J	.	.
.	20ggn~JJ	.
12f#L	20ff#LL	.
.	20a#	.
12A#	.	.
.	20b	.
.	20cc#	.
12EJ	.	.
.	20f#JJ	.
12FFF# 12FF#L	20bLL	.
.	20dd	.
12D	.	.
.	20bb	.
.	20dd	.
12BJ	.	.
.	20aanJJ	.
12gnL	20ggnLL	.
.	20b	.
12B	.	.
.	20cc#	.
.	20dd	.
12DJ	.	.
.	20anJJ	.
=22	=22	=22
16FFF# 16FF#LL	20gnLL	.
.	20ee	.
16C#	.	.
.	20bb	.
16B	.	.
.	20ee	.
16eJJ	.	.
.	20aaJJ	.
16bLL	20ggnLL	.
.	20b	.
16e	.	.
.	20cc#	.
16B	.	.
.	20ff#	.
16C#JJ	.	.
.	20eeJJ	.
16FFF# 16FF#LL	2c# 2f# 2a#	.
16C#	.	.
16A#	.	.
16f#JJ	.	.
16a#LL	.	.
16f#	.	.
16A#	.	.
16C#JJ	.	.
!!LO:LB:g=original
=23	=23	=23
12FFF# 12FF#L	20BLL	.
.	20gn	.
12D	.	.
.	20dd	.
.	20g	.
12BJ	.	.
.	20cc#JJ	.
12e#L	20bLL	.
.	20d	.
12B	.	.
.	20e#	.
.	20a	.
12DJ	.	.
.	20gnJJ	.
16FFF# 16FF#LL	2A# 2f#	.
16C#	.	.
16A#	.	.
16f#JJ	.	.
16cc#LL	.	.
16f#	.	.
16A#	.	.
16C#JJ	.	.
=24	=24	=24
12FFF# 12FF#L	20BLL	>
.	20gn	.
12D	.	.
.	20dd	ppp
.	20g	.
12BJ	.	.
.	20cc#JJ	.
12e#L	20bLL	.
.	20d	.
12B	.	.
.	20e#	.
.	20a	.
12DJ	.	.
.	20gnJJ	.
16FFF# 16FF#LL	2A# 2f#	.
16C#	.	.
16A#	.	.
16f#JJ	.	.
16cc#>LL	.	.
16f#>	.	.
16A#	.	.
16CC# [16C#JJ	.	.
!!LO:LB:g=original
=25	=25	=25
*^	*	*
1C#]	8.FF#L	16r	.
.	.	16A#LL	.
.	.	16c#	.
.	16CC#Jk	[>16f# [16a#JJ	.
.	8.FF#L	16f#] 16a#LL]	.
.	.	16A#	.
.	.	16c#	.
.	16CC#Jk	[>16f# [16a#JJ	.
.	8.FF#L	16f#] 16a#LL]	.
.	.	16A#	.
.	.	16c#	.
.	16CC#Jk	[>16f# [16a#JJ	.
.	8.FF#L	16f#] 16a#LL]	.
.	.	16A#	.
.	.	16c#	.
.	16CC#Jk	16a#JJ	.
*v	*v	*	*
=26	=26	=26
1FFF#: 1FF#: 1C#:	1A# 1f#	.
==	==	==
*-	*-	*-
!!!system-decoration: {(*)}
!!!RDF**kern: > = above
!!!RDF**kern: < = below
!!!RDF**dynam: > = dim.
!!!PPP: A.N. Skryabin: Polnoe sobranie sochinenii dlia fortepiano, vol.1, Moscow: Muzgiz, 1947. Plate M. 18650 Г.
!!!URL-pdf: https://s9.imslp.org/files/imglnks/usimg/7/75/IMSLP517076-PMLP7375-Scriabin_-_Etude_Op.8_No.1_(etc).pdf#page=5 Muzgiz, 1947. Plate M. 18650 Г
!!!ENC: Craig Stuart Sapp
!!!END: 2004/09/03
!!!EED: Craig Stuart Sapp
!!!EEV: 2023/02/26
